X: 2
T: Calliope House
R: jig
M: 6/8
L: 1/8
K: Dmaj
aa/a/a faa | eaa dd/e/f | gag fgf | efe edB | A>BA A2 F |A2 B d2 e|1 fgf fed | e3 :|2 fgf efe | d3- dAB ||dAA fAA | eAA fed | Bee e2 d | efd BdB | ABA A2 F |A2 B d2 e |1 f3 fed | e3- edc :|2 fgf efe | d3 ||


Tune 15	Setting 12384

